packages/core/src/svgs/bcmc.svg

<svg width="24" height="24" viewBox="0 0 24 24" fill="none" xmlns="http://www.w3.org/2000/svg">
<g clip-path="url(#clip0_31_6847)">
<path d="M0 0H24V24H0V0Z" fill="url(#paint0_linear_31_6847)"/>
<path fill-rule="evenodd" clip-rule="evenodd" d="M11.9999 18.4286C13.7049 18.4286 15.34 17.7513 16.5456 16.5458C17.7512 15.3402 18.4285 13.705 18.4285 12.0001C18.4285 10.2951 17.7512 8.65997 16.5456 7.45438C15.34 6.24879 13.7049 5.5715 11.9999 5.5715C10.295 5.5715 8.65985 6.24879 7.45426 7.45438C6.24867 8.65997 5.57138 10.2951 5.57138 12.0001C5.57138 13.705 6.24867 15.3402 7.45426 16.5458C8.65985 17.7513 10.295 18.4286 11.9999 18.4286ZM11.9999 19.2858C13.9322 19.2858 15.7854 18.5182 17.1517 17.1518C18.5181 15.7855 19.2857 13.9324 19.2857 12.0001C19.2857 10.0678 18.5181 8.21463 17.1517 6.84829C15.7854 5.48196 13.9322 4.71436 11.9999 4.71436C10.0677 4.71436 8.21451 5.48196 6.84817 6.84829C5.48183 8.21463 4.71423 10.0678 4.71423 12.0001C4.71423 13.9324 5.48183 15.7855 6.84817 17.1518C8.21451 18.5182 10.0677 19.2858 11.9999 19.2858Z" fill="white"/>
<path d="M11.9999 7.71443H9.42852V12.0001L10.2857 11.5716V8.57157H11.9999C12.2902 8.57139 12.572 8.66943 12.7994 8.84974C13.0269 9.03004 13.1867 9.28201 13.2527 9.56465C13.3188 9.84729 13.2873 10.144 13.1633 10.4064C13.0393 10.6689 12.8302 10.8816 12.5699 11.0101C10.2128 12.1801 7.79994 13.2816 5.42566 14.4301L5.8028 15.2016L12.2871 12.0473C12.2871 12.0473 13.2942 11.6187 13.5814 11.3016C13.8653 10.9961 14.0534 10.6142 14.1227 10.203C14.1919 9.79174 14.1391 9.36925 13.9709 8.98767C13.8027 8.6061 13.5264 8.28217 13.1761 8.05589C12.8258 7.82961 12.4169 7.71091 11.9999 7.71443ZM18.9514 10.2173L18.5742 9.44586L14.0999 11.7773C14.4357 11.9585 14.7015 12.2466 14.855 12.5959C15.0086 12.9453 15.0412 13.3358 14.9478 13.7058C14.8543 14.0758 14.6401 14.4039 14.339 14.6384C14.0379 14.8729 13.6672 15.0002 13.2857 15.0001H10.2857V13.573L9.42852 14.0101V15.8573H13.2857C13.7457 15.8576 14.1974 15.7346 14.5937 15.5009C14.99 15.2672 15.3163 14.9316 15.5387 14.5288C15.761 14.1261 15.8713 13.6711 15.858 13.2113C15.8446 12.7514 15.7082 12.3036 15.4628 11.9144L18.9514 10.2173Z" fill="white"/>
</g>
<defs>
<linearGradient id="paint0_linear_31_6847" x1="12" y1="0" x2="12" y2="24" gradientUnits="userSpaceOnUse">
<stop stop-color="#FCAB2F"/>
<stop offset="1" stop-color="#E45E0E"/>
</linearGradient>
<clipPath id="clip0_31_6847">
<rect width="24" height="24" fill="white"/>
</clipPath>
</defs>
</svg>

<svg xmlns="http://www.w3.org/2000/svg" width="24" height="24" fill="none" viewBox="0 0 24 24"><g clip-path="url(#a)"><path fill="url(#b)" d="M0 0h24v24H0z"/><path fill="#fff" fill-rule="evenodd" d="M12 18.429A6.429 6.429 0 1 0 12 5.57a6.429 6.429 0 0 0 0 12.858m0 .857a7.285 7.285 0 1 0 0-14.571 7.285 7.285 0 0 0 0 14.57" clip-rule="evenodd"/><path fill="#fff" d="M12 7.714H9.429V12l.857-.428v-3H12a1.286 1.286 0 0 1 .57 2.438c-2.357 1.17-4.77 2.272-7.144 3.42l.377.772 6.484-3.155s1.007-.428 1.294-.745A2.135 2.135 0 0 0 12 7.714m6.951 2.503-.377-.771-4.474 2.331A1.714 1.714 0 0 1 13.286 15h-3v-1.427l-.857.437v1.847h3.857a2.572 2.572 0 0 0 2.177-3.943z"/></g><defs><linearGradient id="b" x1="12" x2="12" y1="0" y2="24" gradientUnits="userSpaceOnUse"><stop stop-color="#FCAB2F"/><stop offset="1" stop-color="#E45E0E"/></linearGradient><clipPath id="a"><path fill="#fff" d="M0 0h24v24H0z"/></clipPath></defs></svg>
